brandFactory_export/1.Light/Microfono_1Light.svg

<?xml version="1.0" encoding="UTF-8"?>
<svg width="24px" height="24px" viewBox="0 0 24 24" version="1.1" xmlns="http://www.w3.org/2000/svg" xmlns:xlink="http://www.w3.org/1999/xlink">
    <title>1.Light/Microfono_1Light</title>
    <g id="Symbols" stroke="none" stroke-width="1" fill="none" fill-rule="evenodd">
        <g id="1.Light/Microfono_1Light" fill="#5CB615" fill-rule="nonzero">
            <path d="M16.5865546,13.394958 L16.5865546,5.25042017 C16.5865546,2.42352941 15.1680672,0.991596639 12.3747899,0.991596639 C9.58151261,0.991596639 8.16302521,2.42352941 8.16302521,5.25042017 L8.16302521,13.3983193 C8.16302521,16.2218487 9.58151261,17.6571429 12.3747899,17.6571429 C15.1680672,17.6571429 16.5865546,16.2218487 16.5865546,13.394958 Z M12.3747899,0 C15.7226891,0 17.5647059,1.86554622 17.5647059,5.25042017 L17.5647059,13.3983193 C17.5647059,16.7831933 15.7226891,18.6487395 12.3714286,18.6487395 C9.02352941,18.6487395 7.18151261,16.7831933 7.18151261,13.3983193 L7.18151261,5.25042017 C7.18151261,1.86554622 9.02689076,0 12.3747899,0 Z M12.4016807,21.3042017 C13.0336134,21.3042017 13.5478992,21.8218487 13.5478992,22.4638655 C13.5478992,23.102521 13.0336134,23.6235294 12.4016807,23.6235294 C11.7663866,23.6201681 11.2521008,23.0991597 11.2554458,22.4638655 C11.2554458,21.8218487 11.7697479,21.3042017 12.4016807,21.3042017 Z M16.394958,20.1445378 C17.0268908,20.1445378 17.5411765,20.6621849 17.5411765,21.3042017 C17.5411765,21.9428571 17.0268908,22.4638655 16.394958,22.4638655 C15.7596639,22.4605042 15.2453782,21.9428571 15.2487231,21.3042017 C15.2487231,20.6621849 15.7630252,20.1445378 16.394958,20.1445378 Z M19.6016807,17.3815126 C20.2336134,17.3815126 20.7478992,17.8991597 20.7478992,18.5411765 C20.7478992,19.1798319 20.2336134,19.7008403 19.6016807,19.7008403 C18.9663866,19.697479 18.4521008,19.1764706 18.4554458,18.5411765 C18.4554458,17.902521 18.9663866,17.3815126 19.6016807,17.3815126 Z M20.7478992,13.4352941 C21.292437,13.4386555 21.7294118,13.8823529 21.7260697,14.4235294 C21.7294118,14.9680672 21.292437,15.4117647 20.7478992,15.4151261 C20.2033613,15.4117647 19.7663866,14.9680672 19.7697286,14.4235294 C19.7663866,13.8789916 20.2033613,13.4386555 20.7478992,13.4352941 Z M8.3512605,20.1445378 C8.98319328,20.1445378 9.49747899,20.6621849 9.49747899,21.3042017 C9.49747899,21.9428571 8.98319328,22.4638655 8.3512605,22.4638655 C7.71596639,22.4605042 7.20168067,21.9428571 7.20502563,21.3042017 C7.20502563,20.6621849 7.71932773,20.1445378 8.3512605,20.1445378 L8.3512605,20.1445378 Z M5.14789916,17.3815126 C5.77983193,17.3815126 6.29411765,17.8991597 6.29411765,18.5411765 C6.29411765,19.1798319 5.77983193,19.7008403 5.14789916,19.7008403 C4.51260504,19.697479 3.99831933,19.1764706 4.00166429,18.5411765 C4.00166429,17.902521 4.51596639,17.3815126 5.14789916,17.3815126 Z M4.9798512,14.4235294 C4.98319328,14.9680672 4.54621849,15.4117647 4.00168067,15.4151261 C3.45714286,15.4117647 3.02016807,14.9680672 3.02351015,14.4235294 C3.02016807,13.8789916 3.45714286,13.4386555 4.00168067,13.4352941 C4.54621849,13.4386555 4.98319328,13.8789916 4.9798512,14.4235294 Z" id="Microfono_1Light"></path>
        </g>
    </g>
</svg>

<svg width="24" height="24" viewBox="0 0 24 24" xmlns="http://www.w3.org/2000/svg"><path d="M16.587 13.395V5.25c0-2.826-1.419-4.258-4.212-4.258-2.793 0-4.212 1.432-4.212 4.258v8.148c0 2.824 1.419 4.26 4.212 4.26 2.793 0 4.212-1.436 4.212-4.263zM12.375 0c3.348 0 5.19 1.866 5.19 5.25v8.148c0 3.385-1.842 5.25-5.194 5.25-3.347 0-5.19-1.865-5.19-5.25V5.25C7.182 1.866 9.028 0 12.376 0zm.027 21.304c.632 0 1.146.518 1.146 1.16 0 .639-.514 1.16-1.146 1.16a1.155 1.155 0 01-1.147-1.16c0-.642.515-1.16 1.147-1.16zm3.993-1.16c.632 0 1.146.518 1.146 1.16 0 .639-.514 1.16-1.146 1.16a1.153 1.153 0 01-1.146-1.16c0-.642.514-1.16 1.146-1.16zm3.207-2.762c.632 0 1.146.517 1.146 1.16 0 .638-.514 1.159-1.146 1.159a1.155 1.155 0 01-1.147-1.16c0-.638.511-1.16 1.147-1.16zm1.146-3.947a.983.983 0 01.978.989.984.984 0 01-.978.991.984.984 0 01-.978-.991.981.981 0 01.978-.989zM8.35 20.145c.632 0 1.146.517 1.146 1.16 0 .638-.514 1.159-1.146 1.159a1.153 1.153 0 01-1.146-1.16c0-.642.514-1.16 1.146-1.16zm-3.203-2.763c.632 0 1.146.517 1.146 1.16 0 .638-.514 1.159-1.146 1.159a1.155 1.155 0 01-1.146-1.16c0-.638.514-1.16 1.146-1.16zm-.168-2.958a.984.984 0 01-.978.991.984.984 0 01-.978-.991.981.981 0 01.978-.989.981.981 0 01.978.989z" fill="#5CB615" fill-rule="nonzero"/></svg>
